; generated by Slic3r 1.3.0 on 2022-06-13 at 20:58:13

; external perimeters extrusion width = 0.44mm (2.38mm^3/s)
; perimeters extrusion width = 0.56mm (6.20mm^3/s)
; infill extrusion width = 0.50mm (7.31mm^3/s)
; solid infill extrusion width = 0.56mm (2.07mm^3/s)
; top infill extrusion width = 0.56mm (1.55mm^3/s)

M107
M104 S200 ; set temperature
G28 ; Home all axes
G32 ;
G28 ; Home all axes
G1 Z5 F5000 ; lift nozzle

; Filament gcode

M109 S200 ; set temperature and wait for it to be reached
G21 ; set units to millimeters
G90 ; use absolute coordinates
M82 ; use absolute distances for extrusion
G92 E0
G1 Z0.300 F7800.000
G1 E-2.00000 F2400.00000
G92 E0
G1 X-22.916 Y16.221 F7800.000
G1 E2.00000 F2400.00000
G1 F1800
G1 X77.065 Y-16.265 E9.02299
G1 X79.321 Y-16.580 E9.17517
G1 X81.548 Y-16.102 E9.32734
G1 X83.476 Y-14.889 E9.47951
G1 X84.372 Y-13.890 E9.56916
G1 X146.164 Y71.158 E16.59215
G1 X147.161 Y73.206 E16.74432
G1 X147.395 Y75.472 E16.89650
G1 X146.837 Y77.681 E17.04867
G1 X146.164 Y78.842 E17.13832
G1 X84.372 Y163.890 E24.16131
G1 X82.733 Y165.472 E24.31348
G1 X80.650 Y166.394 E24.46565
G1 X78.377 Y166.546 E24.61783
G1 X77.065 Y166.265 E24.70748
G1 X-22.916 Y133.779 E31.73047
G1 X-24.926 Y132.708 E31.88264
G1 X-26.447 Y131.013 E32.03481
G1 X-27.294 Y128.898 E32.18699
G1 X-27.432 Y127.563 E32.27664
G1 X-27.432 Y22.437 E39.29964
G1 X-27.035 Y20.194 E39.45181
G1 X-25.892 Y18.223 E39.60398
G1 X-24.143 Y16.765 E39.75615
G1 X-22.971 Y16.245 E39.84179
G1 E37.84179 F2400.00000
G92 E0
G1 X-21.883 Y19.400 F7800.000
G1 E2.00000 F2400.00000
G1 F1800
G1 X79.085 Y-13.406 E9.56646
G1 X81.058 Y-12.765 E9.71434
G1 X144.069 Y73.963 E17.35475
G1 X144.069 Y76.037 E17.50263
G1 X81.058 Y162.765 E25.14303
G1 X79.085 Y163.406 E25.29091
G1 X76.714 Y162.636 E25.46857
G1 X-22.870 Y130.279 E32.93131
G1 X-24.089 Y128.601 E33.07920
G1 X-24.089 Y21.399 E40.71960
G1 X-22.870 Y19.721 E40.86748
G1 X-21.940 Y19.419 E40.93715
G1 X-21.706 Y19.944 F7800.000
G1 F1800
G1 X79.085 Y-12.805 E48.49038
G1 X80.705 Y-12.279 E48.61179
G1 X143.498 Y74.148 E56.22573
G1 X143.498 Y75.852 E56.34715
G1 X80.705 Y162.279 E63.96108
G1 X79.085 Y162.805 E64.08250
G1 X76.890 Y162.092 E64.24693
G1 X-22.516 Y129.793 E71.69643
G1 X-23.518 Y128.415 E71.81785
G1 X-23.518 Y21.585 E79.43179
G1 X-22.516 Y20.207 E79.55321
G1 X-21.763 Y19.962 E79.60964
G1 X-21.530 Y20.487 F7800.000
G1 F1800
G1 X79.085 Y-12.204 E87.14963
G1 X80.352 Y-11.793 E87.24458
G1 X142.926 Y74.334 E94.83205
G1 X142.926 Y75.666 E94.92701
G1 X80.352 Y161.793 E102.51448
G1 X79.085 Y162.204 E102.60943
G1 X77.067 Y161.549 E102.76062
G1 X-22.163 Y129.307 E110.19690
G1 X-22.946 Y128.229 E110.29185
G1 X-22.946 Y21.771 E117.87932
G1 X-22.163 Y20.693 E117.97427
G1 X-21.587 Y20.506 E118.01747
G1 X-21.353 Y21.031 F7800.000
G1 F1800
G1 X79.085 Y-11.604 E125.54423
G1 X79.999 Y-11.307 E125.61272
G1 X142.355 Y74.520 E133.17372
G1 X142.355 Y75.480 E133.24221
G1 X79.999 Y161.307 E140.80321
G1 X79.085 Y161.604 E140.87170
G1 X77.244 Y161.005 E141.00966
G1 X-21.810 Y128.821 E148.43270
G1 X-22.375 Y128.044 E148.50119
G1 X-22.375 Y21.956 E156.06219
G1 X-21.810 Y21.179 E156.13068
G1 X-21.410 Y21.049 E156.16065
G1 X-21.177 Y21.574 F7800.000
G1 F1800
G1 X79.085 Y-11.003 E163.67418
G1 X79.645 Y-10.821 E163.71619
G1 X141.783 Y74.705 E171.25073
G1 X141.783 Y75.295 E171.29275
G1 X79.645 Y160.821 E178.82729
G1 X79.085 Y161.003 E178.86931
G1 X77.420 Y160.462 E178.99404
G1 X-21.457 Y128.335 E186.40385
G1 X-21.803 Y127.858 E186.44587
G1 X-21.803 Y22.142 E193.98041
G1 X-21.457 Y21.665 E194.02243
G1 X-21.234 Y21.593 E194.03916
G1 X-21.232 Y22.328 F7800.000
G1 F1800
G1 X-21.104 Y22.151 E194.05472
G1 X79.085 Y-10.402 E201.56279
G1 X79.292 Y-10.334 E201.57834
G1 X141.212 Y74.891 E209.08642
G1 X141.212 Y75.109 E209.10197
G1 X79.292 Y160.334 E216.61004
G1 X79.085 Y160.402 E216.62559
G1 X-21.104 Y127.849 E224.13367
G1 X-21.232 Y127.672 E224.14922
G1 X-21.232 Y22.388 E231.65302
G1 X-20.596 Y22.655 F7800.000
G1 F1800
G1 X78.970 Y-9.696 E238.64689
G1 X140.505 Y75.000 E245.64077
G1 X78.970 Y159.696 E252.63464
G1 X-20.596 Y127.345 E259.62851
G1 X-20.596 Y22.715 E266.61838
G1 X-20.198 Y22.697 F7800.000
G1 X-20.061 Y23.044 F7800.000
G1 F1800
G1 X78.765 Y-9.067 E273.56025
G1 X139.843 Y75.000 E280.50213
G1 X78.765 Y159.067 E287.44401
G1 X-20.061 Y126.956 E294.38589
G1 X-20.061 Y23.104 E301.32376
G1 X-19.525 Y23.433 F7800.000
G1 F1800
G1 X78.561 Y-8.437 E308.21364
G1 X139.181 Y75.000 E315.10352
G1 X78.561 Y158.437 E321.99341
G1 X-19.525 Y126.567 E328.88329
G1 X-19.525 Y23.493 E335.76917
G1 E333.76917 F2400.00000
G92 E0
G1 X6.006 Y46.556 F7800.000
G1 E2.00000 F2400.00000
G1 F1800
G1 X45.156 Y75.000 E5.23282
G1 X6.006 Y103.444 E8.46564
G1 X2.235 Y96.912 E8.96949
G1 X-1.245 Y86.201 E9.72189
G1 X-2.422 Y75.000 E10.47429
G1 X-1.245 Y63.799 E11.22669
G1 X2.235 Y53.088 E11.97909
G1 X5.976 Y46.608 E12.47894
G1 X6.230 Y46.225 F7800.000
G1 X5.840 Y45.773 F7800.000
G1 F1800
G1 X46.067 Y75.000 E15.80074
G1 X5.840 Y104.227 E19.12255
G1 X1.743 Y97.131 E19.66991
G1 X-1.772 Y86.313 E20.42983
G1 X-2.961 Y75.000 E21.18975
G1 X-1.772 Y63.687 E21.94967
G1 X1.743 Y52.869 E22.70960
G1 X5.810 Y45.825 E23.25294
G1 X5.673 Y44.990 F7800.000
G1 F1800
G1 X46.978 Y75.000 E26.66374
G1 X5.673 Y105.010 E30.07454
G1 X1.251 Y97.350 E30.66539
G1 X-2.299 Y86.425 E31.43284
G1 X-3.500 Y75.000 E32.20028
G1 X-2.299 Y63.575 E32.96772
G1 X1.251 Y52.650 E33.73517
G1 X5.643 Y45.042 E34.32202
G1 E32.32202 F2400.00000
G92 E0
G1 X10.356 Y40.569 F7800.000
G1 E2.00000 F2400.00000
G1 F1800
G1 X15.402 Y34.965 E2.50386
G1 X24.514 Y28.345 E3.25626
G1 X34.803 Y23.764 E4.00865
G1 X45.819 Y21.422 E4.76105
G1 X57.082 Y21.422 E5.51345
G1 X64.459 Y22.990 E6.01731
G1 X49.505 Y69.013 E9.25013
G1 X10.404 Y40.605 E12.47894
G1 X9.985 Y40.420 F7800.000
G1 X9.560 Y40.653 F7800.000
G1 F1800
G1 X15.042 Y34.564 E13.02629
G1 X24.245 Y27.878 E13.78622
G1 X34.636 Y23.251 E14.54613
G1 X45.763 Y20.886 E15.30606
G1 X57.138 Y20.886 E16.06598
G1 X65.152 Y22.590 E16.61333
G1 X49.787 Y69.880 E19.93514
G1 X9.608 Y40.688 E23.25294
G1 X8.764 Y40.737 F7800.000
G1 F1800
G1 X14.682 Y34.164 E23.84380
G1 X23.976 Y27.412 E24.61124
G1 X34.470 Y22.739 E25.37868
G1 X45.707 Y20.351 E26.14613
G1 X57.194 Y20.351 E26.91357
G1 X65.846 Y22.190 E27.50443
G1 X50.069 Y70.747 E30.91523
G1 X8.812 Y40.772 E34.32201
G1 E32.32201 F2400.00000
G92 E0
G1 X56.543 Y71.300 F7800.000
G1 E2.00000 F2400.00000
G1 F1800
G1 X71.497 Y25.277 E5.23282
G1 X78.387 Y28.345 E5.73667
G1 X87.499 Y34.965 E6.48907
G1 X95.035 Y43.334 E7.24147
G1 X100.666 Y53.088 E7.99386
G1 X104.146 Y63.799 E8.74627
G1 X104.935 Y71.300 E9.25012
G1 X56.603 Y71.300 E12.47893
G1 X56.148 Y71.237 F7800.000
G1 X55.806 Y71.836 F7800.000
G1 F1800
G1 X71.171 Y24.546 E15.80074
G1 X78.656 Y27.878 E16.34809
G1 X87.859 Y34.564 E17.10802
G1 X95.471 Y43.018 E17.86794
G1 X101.158 Y52.869 E18.62785
G1 X104.673 Y63.687 E19.38778
G1 X105.530 Y71.836 E19.93513
G1 X55.866 Y71.836 E23.25293
G1 X55.069 Y72.371 F7800.000
G1 F1800
G1 X70.846 Y23.814 E26.66373
G1 X78.926 Y27.412 E27.25459
G1 X88.219 Y34.164 E28.02203
G1 X95.906 Y42.701 E28.78947
G1 X101.650 Y52.650 E29.55691
G1 X105.200 Y63.575 E30.32436
G1 X106.125 Y72.371 E30.91522
G1 X55.129 Y72.371 E34.32201
G1 E32.32201 F2400.00000
G92 E0
G1 X56.543 Y78.700 F7800.000
G1 E2.00000 F2400.00000
G1 F1800
G1 X104.935 Y78.700 E5.23282
G1 X104.146 Y86.201 E5.73667
G1 X100.666 Y96.912 E6.48908
G1 X95.035 Y106.666 E7.24147
G1 X87.499 Y115.035 E7.99387
G1 X78.387 Y121.655 E8.74627
G1 X71.497 Y124.723 E9.25012
G1 X56.562 Y78.757 E12.47893
G1 X56.481 Y78.305 F7800.000
G1 X55.806 Y78.164 F7800.000
G1 F1800
G1 X105.530 Y78.164 E15.80074
G1 X104.673 Y86.313 E16.34810
G1 X101.158 Y97.131 E17.10802
G1 X95.471 Y106.982 E17.86794
G1 X87.859 Y115.436 E18.62786
G1 X78.656 Y122.122 E19.38778
G1 X71.171 Y125.454 E19.93514
G1 X55.825 Y78.221 E23.25293
G1 X55.069 Y77.629 F7800.000
G1 F1800
G1 X106.125 Y77.629 E26.66373
G1 X105.200 Y86.425 E27.25459
G1 X101.650 Y97.350 E28.02204
G1 X95.906 Y107.299 E28.78948
G1 X88.219 Y115.836 E29.55692
G1 X78.926 Y122.588 E30.32436
G1 X70.846 Y126.186 E30.91522
G1 X55.087 Y77.686 E34.32200
G1 E32.32200 F2400.00000
G92 E0
G1 X49.505 Y80.987 F7800.000
G1 E2.00000 F2400.00000
G1 F1800
G1 X64.459 Y127.010 E5.23282
G1 X57.082 Y128.578 E5.73667
G1 X45.819 Y128.578 E6.48907
G1 X34.803 Y126.236 E7.24147
G1 X24.514 Y121.655 E7.99387
G1 X15.402 Y115.035 E8.74627
G1 X10.356 Y109.431 E9.25013
G1 X49.457 Y81.022 E12.47894
G1 X49.871 Y80.824 F7800.000
G1 X49.787 Y80.120 F7800.000
G1 F1800
G1 X65.152 Y127.410 E15.80075
G1 X57.138 Y129.114 E16.34810
G1 X45.763 Y129.114 E17.10802
G1 X34.636 Y126.749 E17.86794
G1 X24.245 Y122.122 E18.62786
G1 X15.042 Y115.436 E19.38779
G1 X9.560 Y109.347 E19.93514
G1 X49.738 Y80.155 E23.25294
G1 X50.069 Y79.253 F7800.000
G1 F1800
G1 X65.846 Y127.810 E26.66374
G1 X57.194 Y129.649 E27.25460
G1 X45.707 Y129.649 E28.02204
G1 X34.470 Y127.261 E28.78948
G1 X23.976 Y122.588 E29.55693
G1 X14.682 Y115.836 E30.32437
G1 X8.764 Y109.263 E30.91523
G1 X50.020 Y79.289 E34.32201
G1 X50.632 Y80.105 F7800.000
G1 F1800
G1 X58.039 Y72.699 E35.02266
G1 X57.280 Y72.699 E35.07340
G1 X50.446 Y79.533 E35.71989
G1 X50.260 Y78.960 E35.76016
G1 X56.522 Y72.699 E36.35250
G1 X55.764 Y72.699 E36.40323
G1 X49.137 Y79.325 E37.03013
G1 X46.363 Y81.341 E37.25946
G1 X55.005 Y72.699 E38.07698
G1 X54.540 Y72.699 E38.10810
G1 X54.681 Y72.264 E38.13865
G1 X43.590 Y83.356 E39.18790
G1 X40.816 Y85.371 E39.41723
G1 X55.046 Y71.141 E40.76339
G1 X55.411 Y70.017 E40.84241
G1 X38.042 Y87.386 E42.48548
G1 X35.269 Y89.401 E42.71481
G1 X55.776 Y68.894 E44.65480
G1 X56.141 Y67.770 E44.73382
G1 X32.495 Y91.416 E46.97072
G1 X29.722 Y93.431 E47.20005
G1 X56.506 Y66.647 E49.73386
G1 X56.871 Y65.523 E49.81288
G1 X47.394 Y75.000 E50.70939
G1 X46.955 Y74.681 E50.74571
G1 X50.369 Y71.267 E51.06864
G1 X49.930 Y70.948 E51.10497
G1 X46.516 Y74.362 E51.42790
G1 X46.077 Y74.042 E51.46422
G1 X49.490 Y70.629 E51.78715
G1 X49.051 Y70.310 E51.82348
G1 X45.637 Y73.723 E52.14641
G1 X45.198 Y73.404 E52.18273
G1 X48.612 Y69.990 E52.50567
G1 X48.172 Y69.671 E52.54199
G1 X44.759 Y73.085 E52.86492
G1 X44.319 Y72.766 E52.90124
G1 X47.733 Y69.352 E53.22418
G1 X47.294 Y69.033 E53.26050
G1 X43.880 Y72.447 E53.58343
G1 X43.441 Y72.127 E53.61975
G1 X46.854 Y68.714 E53.94269
G1 X46.415 Y68.395 E53.97901
G1 X43.002 Y71.808 E54.30194
G1 X42.562 Y71.489 E54.33826
G1 X45.976 Y68.075 E54.66120
G1 X45.537 Y67.756 E54.69752
G1 X42.123 Y71.170 E55.02045
G1 X41.684 Y70.851 E55.05677
G1 X45.097 Y67.437 E55.37971
G1 X44.658 Y67.118 E55.41603
G1 X41.244 Y70.532 E55.73896
G1 X40.805 Y70.212 E55.77528
G1 X44.219 Y66.799 E56.09822
G1 X43.779 Y66.480 E56.13454
G1 X40.366 Y69.893 E56.45747
G1 X39.926 Y69.574 E56.49379
G1 X43.340 Y66.160 E56.81673
G1 X42.901 Y65.841 E56.85305
G1 X39.487 Y69.255 E57.17598
G1 X39.048 Y68.936 E57.21230
G1 X42.462 Y65.522 E57.53524
G1 X42.022 Y65.203 E57.57156
G1 X38.609 Y68.617 E57.89449
G1 X38.169 Y68.297 E57.93081
G1 X41.583 Y64.884 E58.25375
G1 X41.144 Y64.565 E58.29007
G1 X37.730 Y67.978 E58.61300
G1 X37.291 Y67.659 E58.64932
G1 X40.704 Y64.245 E58.97226
G1 X40.265 Y63.926 E59.00858
G1 X36.851 Y67.340 E59.33151
G1 X36.412 Y67.021 E59.36783
G1 X39.826 Y63.607 E59.69077
G1 X39.386 Y63.288 E59.72709
G1 X35.973 Y66.702 E60.05002
G1 X35.534 Y66.383 E60.08634
G1 X38.947 Y62.969 E60.40928
G1 X38.508 Y62.650 E60.44560
G1 X35.094 Y66.063 E60.76853
G1 X34.655 Y65.744 E60.80485
G1 X38.069 Y62.330 E61.12779
G1 X37.629 Y62.011 E61.16411
G1 X34.216 Y65.425 E61.48704
G1 X33.776 Y65.106 E61.52336
G1 X37.190 Y61.692 E61.84630
G1 X36.751 Y61.373 E61.88262
G1 X33.337 Y64.787 E62.20555
G1 X32.898 Y64.468 E62.24187
G1 X36.311 Y61.054 E62.56481
G1 X35.872 Y60.735 E62.60113
G1 X32.458 Y64.148 E62.92406
G1 X32.019 Y63.829 E62.96038
G1 X35.433 Y60.415 E63.28331
G1 X34.994 Y60.096 E63.31964
G1 X31.580 Y63.510 E63.64257
G1 X31.141 Y63.191 E63.67889
G1 X34.554 Y59.777 E64.00182
G1 X34.115 Y59.458 E64.03815
G1 X30.701 Y62.872 E64.36108
G1 X30.262 Y62.553 E64.39740
G1 X33.676 Y59.139 E64.72033
G1 X33.236 Y58.820 E64.75666
G1 X29.823 Y62.233 E65.07959
G1 X29.383 Y61.914 E65.11591
G1 X32.797 Y58.500 E65.43884
G1 X32.358 Y58.181 E65.47516
G1 X28.944 Y61.595 E65.79810
G1 X28.505 Y61.276 E65.83442
G1 X31.918 Y57.862 E66.15735
G1 X31.479 Y57.543 E66.19367
G1 X28.066 Y60.957 E66.51661
G1 X27.626 Y60.638 E66.55293
G1 X31.040 Y57.224 E66.87586
G1 X30.601 Y56.905 E66.91218
G1 X27.187 Y60.318 E67.23511
G1 X26.748 Y59.999 E67.27144
G1 X30.161 Y56.585 E67.59437
G1 X29.722 Y56.266 E67.63069
G1 X26.308 Y59.680 E67.95362
G1 X25.869 Y59.361 E67.98995
G1 X29.283 Y55.947 E68.31288
G1 X28.843 Y55.628 E68.34920
G1 X25.430 Y59.042 E68.67213
G1 X24.990 Y58.723 E68.70845
G1 X28.404 Y55.309 E69.03139
G1 X27.965 Y54.990 E69.06771
G1 X24.551 Y58.403 E69.39064
G1 X24.112 Y58.084 E69.42696
G1 X27.526 Y54.671 E69.74990
G1 X27.086 Y54.351 E69.78622
G1 X23.673 Y57.765 E70.10915
G1 X23.233 Y57.446 E70.14547
G1 X26.647 Y54.032 E70.46840
G1 X26.208 Y53.713 E70.50473
G1 X22.794 Y57.127 E70.82766
G1 X22.355 Y56.808 E70.86398
G1 X25.768 Y53.394 E71.18691
G1 X25.329 Y53.075 E71.22323
G1 X21.915 Y56.488 E71.54617
G1 X21.476 Y56.169 E71.58249
G1 X24.890 Y52.756 E71.90542
G1 X24.450 Y52.436 E71.94174
G1 X21.037 Y55.850 E72.26467
G1 X20.598 Y55.531 E72.30100
G1 X24.011 Y52.117 E72.62393
G1 X23.572 Y51.798 E72.66025
G1 X20.158 Y55.212 E72.98318
G1 X19.719 Y54.893 E73.01951
G1 X23.133 Y51.479 E73.34244
G1 X22.693 Y51.160 E73.37876
G1 X19.280 Y54.573 E73.70169
G1 X18.840 Y54.254 E73.73801
G1 X22.254 Y50.841 E74.06095
G1 X21.815 Y50.521 E74.09727
G1 X18.401 Y53.935 E74.42020
G1 X17.962 Y53.616 E74.45652
G1 X21.375 Y50.202 E74.77945
G1 X20.936 Y49.883 E74.81578
G1 X17.522 Y53.297 E75.13871
G1 X17.083 Y52.978 E75.17503
G1 X20.497 Y49.564 E75.49796
G1 X20.058 Y49.245 E75.53428
G1 X16.644 Y52.658 E75.85722
G1 X16.205 Y52.339 E75.89354
G1 X19.618 Y48.926 E76.21647
G1 X19.179 Y48.606 E76.25279
G1 X15.765 Y52.020 E76.57572
G1 X15.326 Y51.701 E76.61205
G1 X18.740 Y48.287 E76.93498
G1 X18.300 Y47.968 E76.97130
G1 X14.887 Y51.382 E77.29423
G1 X14.447 Y51.063 E77.33055
G1 X17.861 Y47.649 E77.65349
G1 X17.422 Y47.330 E77.68981
G1 X14.008 Y50.743 E78.01274
G1 X13.569 Y50.424 E78.04906
G1 X16.982 Y47.011 E78.37199
G1 X16.543 Y46.691 E78.40831
G1 X13.130 Y50.105 E78.73125
G1 X12.690 Y49.786 E78.76757
G1 X16.104 Y46.372 E79.09050
G1 X15.665 Y46.053 E79.12682
G1 X12.251 Y49.467 E79.44975
G1 X11.812 Y49.148 E79.48608
G1 X15.225 Y45.734 E79.80901
G1 X14.786 Y45.415 E79.84533
G1 X11.372 Y48.828 E80.16826
G1 X10.933 Y48.509 E80.20458
G1 X14.347 Y45.096 E80.52752
G1 X13.907 Y44.776 E80.56384
G1 X10.494 Y48.190 E80.88677
G1 X10.054 Y47.871 E80.92309
G1 X13.468 Y44.457 E81.24602
G1 X13.029 Y44.138 E81.28234
G1 X9.615 Y47.552 E81.60528
G1 X9.176 Y47.233 E81.64160
G1 X12.590 Y43.819 E81.96453
G1 X12.150 Y43.500 E82.00085
G1 X8.737 Y46.913 E82.32378
G1 X8.297 Y46.594 E82.36011
G1 X11.711 Y43.181 E82.68304
G1 X11.272 Y42.861 E82.71936
G1 X7.858 Y46.275 E83.04229
G1 X7.419 Y45.956 E83.07861
G1 X10.832 Y42.542 E83.40154
G1 X10.393 Y42.223 E83.43787
G1 X6.979 Y45.637 E83.76080
G1 X6.540 Y45.318 E83.79712
G1 X9.954 Y41.904 E84.12005
G1 X9.514 Y41.585 E84.15637
G1 X6.101 Y44.998 E84.47931
G1 X5.662 Y44.679 E84.51563
G1 X9.075 Y41.266 E84.83856
G1 X8.636 Y40.946 E84.87488
G1 X-19.198 Y68.780 E87.50792
G1 X-19.198 Y68.022 E87.55866
G1 E85.55866 F2400.00000
G92 E0
G1 X4.859 Y45.481 F7800.000
G1 E2.00000 F2400.00000
G1 F1800
G1 X-19.198 Y69.538 E4.27577
G1 X-19.198 Y70.297 E4.32651
G1 X3.823 Y47.276 E6.50427
G1 X2.787 Y49.071 E6.64288
G1 X-19.198 Y71.055 E8.72263
G1 X-19.198 Y71.814 E8.77336
G1 X1.751 Y50.865 E10.75510
G1 X0.967 Y52.222 E10.85994
G1 X0.878 Y52.496 E10.87919
G1 X-19.198 Y72.572 E12.77838
G1 X-19.198 Y73.331 E12.82912
G1 X0.513 Y53.620 E14.69378
G1 X0.148 Y54.743 E14.77280
G1 X-19.198 Y74.089 E16.60293
G1 X-19.198 Y74.848 E16.65366
G1 X-0.217 Y55.867 E18.44925
G1 X-0.582 Y56.990 E18.52827
G1 X-19.198 Y75.606 E20.28933
G1 X-19.198 Y76.365 E20.34006
G1 X-0.947 Y58.114 E22.06659
